!!!!SEGMENT: pl-kk--kk-i-3--008-003_anonim--missa-solenne-patrem.krn
!!!cenid: 15xx:601
!!!COM: Anonim
!!!COM-rismid: pe30004985
!!!CDT:
!!!CNT:
!!!OPR: Missa Solenne
!!!OTL: Patrem
!!!OMV: 003
!!!PDT:
!!!AGN:
!!!SMS-siglum: PL-Kk
!!!SMS-shelfmark: Kk.I.3
!!!SMS-shelfwork: 008-003 M
!!!SMS-variant:
!!!SMS-altvar:
!!!NIFC-rismid: 1001145493
!!!URL-scan: http://repozytorium.nifc.pl/skany/pl-kk-nut--i-3
!!!ONB-nifc: UWAGA: Discantus (s. 43r-45v, skan 0045-0048), Tenor (s. 31r-33v, skan 0203-0206), Bassus (s. 40v-43r, skan 0344-0346). Następna część: Sanctus
!!!key: d:dor
**kern	**text	**kern	**text	**kern	**text
*group1	*	*group1	*	*group1	*
*part3	*part3	*part2	*part2	*part1	*part1
*staff3	*staff3	*staff2	*staff2	*staff1	*staff1
*I"[Bassus]	*	*I"[Tenor]	*	*I"[Discantus]	*
*I'[B]	*	*I'[T]	*	*I'[S]	*
*Ibass	*	*Itenor	*	*Isoprn	*
*ICvox	*	*ICvox	*	*ICvox	*
*clefF4	*	*clefC4	*	*clefC3	*
*k[]	*	*k[]	*	*k[]	*
*d:	*	*d:	*	*d:	*
*M2/1	*	*M2/1	*	*M2/1	*
*met(C|)	*	*met(C|)	*	*met(C|)	*
=1-	=1-	=1-	=1-	=1-	=1-
!	!	!	!	!LO:TX:a:t=Solenne	!
1D	Pa-	1d	Pa-	1d	Pa-
1A	-tre(m)	1A	-trem	1e	-tre(m)
=2-	=2-	=2-	=2-	=2-	=2-
1D	om-	1d	om-	1f	om-
2AA/	-ni-	2c/	-ni-	2e/	-ni-
2AA/	-po-	2c/	-po-	2e/	-po-
=3-	=3-	=3-	=3-	=3-	=3-
1E	-te(n)-	1B	-ten-	1e	-ten-
1F,>	-tem	1A,>	-tem	1c,>	-te(m)
=4-	=4-	=4-	=4-	=4-	=4-
!	!	!LO:SIC:v:l:s:t=fac-	!	!	!
1F	fac-	1A	fa-	1c	fac-
!	!	!LO:SIC:v:l:s:t=-to-	!	!	!
1D	-to-	1F	-cto-	1d	-to-
!LO:SIC:v:t=custos C	!	!	!	!	!
!LO:LB:g=original	!	!	!	!	!
=5-	=5-	=5-	=5-	=5-	=5-
*	*	*	*	*lig	*
1C	-re(m)	0E	-rem	1G	-rem
1C,>	.	.	.	1c	.
*	*	*	*	*Xlig	*
!	!	!LO:SIC:v:t=custos F	!	!	!
!	!	!LO:LB:g=original	!	!	!
=6-	=6-	=6-	=6-	=6-	=6-
2D/	ce-	2F/	cae-	2A/	ce-
!	!	!	!	!LO:SIC:v:t=custos c	!
!	!	!	!	!LO:LB:g=original	!
2C/	-li	2E/	li	2c/	-li
2D/	et	2D/	et	2A/	et
2AA/	ter-	2C/	ter-	2A/	ter-
=7-	=7-	=7-	=7-	=7-	=7-
1A	.	0D	-re	1F	-re
2A\	.	.	.	1F,>	.
2F,>/	-re	.	.	.	.
=8-	=8-	=8-	=8-	=8-	=8-
1G	vi-	1E	vi-	1c	vi-
1G	-ſi-	1E	-ſi-	1c	-ſi-
=9-	=9-	=9-	=9-	=9-	=9-
1C	-bi-	1G	-bi-	1c	-bi-
1C	-li-	1G	-li-	1c	-li-
=10-	=10-	=10-	=10-	=10-	=10-
0D,>	-um	0F,>	-u(m)	0A,>	-um
=11-	=11-	=11-	=11-	=11-	=11-
!LO:SIC:v:l:s:t=om-	!	!	!	!	!
1D	Etom-	1F	om-	1d	om-
!LO:SIC:v:t=custos BB	!	!	!	!	!
!LO:LB:g=original	!	!	!	!	!
1BB	-ni-	1G	-ni-	1d	-ni-
=12-	=12-	=12-	=12-	=12-	=12-
0AA,>	-um	0A,>	-u(m)	0c,>	-u(m)
=13-	=13-	=13-	=13-	=13-	=13-
2AA/	et	2A/	et	2c/	et
2AA/	in-	2A/	in-	2c/	in-
!	!	!LO:SIC:v:t=custos A	!	!	!
!	!	!LO:LB:g=original	!	!	!
2D/	-vi-	2A/	-vi-	2A/	-vi-
2D/	ſi-	2A/	ſi-	2B/	-ſi-
!	!	!	!	!LO:SIC:v:t=custos c	!
!	!	!	!	!LO:LB:g=original	!
=14-	=14-	=14-	=14-	=14-	=14-
1AA	bi-	1E	bi-	2c/	-bi-
.	.	.	.	1d	.
1AA	-li	1E	-li	.	.
!	!	!	!	!LO:SIC:v:s:t=2c#/	!
.	.	.	.	2c/	-li-
=15-	=15-	=15-	=15-	=15-	=15-
*lig	*	*	*	*2\right	*
1A	-um	0D,>	-um	1d	-um
1F,>	.	.	.	2d/	.
.	.	.	.	2f\	.
*Xlig	*	*	*	*	*
=16-	=16-	=16-	=16-	=16-	=16-
1G	et	1E	et	1e	et
1G	in	1E	in	1e	in
=17-	=17-	=17-	=17-	=17-	=17-
1C	u-	1G	u-	1c	u-
1C	-nu(m)	1G	-nu(m)	2c/	-nu(m)
.	.	.	.	2B/	do-
=18-	=18-	=18-	=18-	=18-	=18-
0D	-do-	0F	-do-	0A	-mi-
=19-	=19-	=19-	=19-	=19-	=19-
2D/	mi-	2F/	.	2f\	-nu(m)
!LO:SIC:v:t=custos D	!	!	!	!	!
!LO:LB:g=original	!	!	!	!	!
2D/	-nu(m)	2F/	.	2f\	.
1E	no-	1G	-mi-	1e	no-
=20-	=20-	=20-	=20-	=20-	=20-
*lig	*	*	*	*lig	*
1F	-ſtru(m)	0A,>	-nu(m)	1c	-ſtru(m)
1D,>	.	.	.	1f	.
*Xlig	*	*	*	*Xlig	*
=21-	=21-	=21-	=21-	=21-	=21-
!	!	!LO:TX:t=P:problem:ubytki w tekście	!	!	!
1G	Je-	1B	[Je-	1g	Je-
1A,>	-ſum	1c	-ſum]	1e	-ſum
!	!	!LO:SIC:v:t=custos d	!	!LO:SIC:v:t=custos f	!
!	!	!LO:PB:g=original	!	!LO:LB:g=original	!
=22-	=22-	=22-	=22-	=22-	=22-
1D	chr(i-	1d	chr(i-	0f,>	chr(istu)m
1D,>	-stu)m	1d,>	-stu)m	.	.
=23-	=23-	=23-	=23-	=23-	=23-
1D	fi-	1d	fi-	1f	fi-
*2\right	*	*	*	*	*
2A\	-li-	2c/	-li-	2e/	-li-
2A,>\	-u(m)	2c/	-u(m)	2e/	-um
=24-	=24-	=24-	=24-	=24-	=24-
1E	de-	1B	de-	1e	de-
1F,>	-i	1A,>	-i	1c,>	-i
=25-	=25-	=25-	=25-	=25-	=25-
2D/	v-	2A/	u-	2d/	u-
2D/	-ni-	2A/	-ni-	2d/	-ni-
!LO:TX:a:t=P:problem:dwie pionowe kreski nad nutą	!	!	!	!	!
1D	-ge-	1F	-ge-	1d	-ge-
!LO:SIC:v:t=custos AA	!	!	!	!	!
!LO:LB:g=original	!	!	!	!	!
=26-	=26-	=26-	=26-	=26-	=26-
1AA	-ni-	1E	-ni-	1c	-ni-
1AA,>	-tu(m)	1E,>	-tu(m)	1c,>	-tu(m)
=27-	=27-	=27-	=27-	=27-	=27-
2AA/	et	2A/	et	2e/	et
2AA/	ex	2A/	ex	2e/	ex
!	!	!LO:SIC:v:t=custos F	!	!	!
!	!	!LO:LB:g=original	!	!	!
2D/	pa-	2F/	pa-	2d/	pa-
2D/	-tre	2F/	-tre	2d/	.
=28-	=28-	=28-	=28-	=28-	=28-
0AA	-na-	0E	-na-	2c/	-tre
.	.	.	.	1d	na-
!	!	!	!	!LO:SIC:v:s:t=2c#/	!
.	.	.	.	2c/	.
!	!	!	!	!LO:SIC:v:t=custos d	!
!	!	!	!	!LO:LB:g=original	!
=29-	=29-	=29-	=29-	=29-	=29-
0A	-tu(m)	0D	-tu(m)	0d	-tum
=30-	=30-	=30-	=30-	=30-	=30-
!	!	!	!	!LO:TX:t=P:problem:fragnemt doklejony -2 takty	!
1G	an-	1E	an-	1c	an-
1G,>	-te	1E	-te	1c,>	-te
=31-	=31-	=31-	=31-	=31-	=31-
1C	om-	1G	om-	1c	om-
1C	-ni-	1G	-ni-	1c	-ni-
=32-	=32-	=32-	=32-	=32-	=32-
0D	-a	0F,>	-a	0A,>	-a
=33-	=33-	=33-	=33-	=33-	=33-
0AA,<	ſe-	0A	ſe-	0e	ſe-
=34-	=34-	=34-	=34-	=34-	=34-
0D	.	0F	.	0d	.
=35-	=35-	=35-	=35-	=35-	=35-
1AA	.	1E	.	2c/	.
.	.	.	.	2A/	.
!LO:SIC:v:t=custos AA	!	!	!	!	!
!LO:PB:g=original	!	!	!	!	!
1AA	cu-	1E	cu-	2B/	.
.	.	.	.	2c/	-cu-
=36-	=36-	=36-	=36-	=36-	=36-
0D;>	-la	0D;>	-la	0d;>	-la
!	!	!LO:SIC:v:t=custos A	!	!	!
!	!	!LO:LB:g=original	!	!	!
=37-	=37-	=37-	=37-	=37-	=37-
1A	De-	1A	De-	1e	de-
1F	-u(m)	1A	-u(m)	1d,>	-u(m)
=38-	=38-	=38-	=38-	=38-	=38-
1E	de	1B	de	1e	de
1E	de-	1c	de-	1e	de-
!	!	!	!	!LO:SIC:v:t=custos f	!
!	!	!	!	!LO:PB:g=original	!
=39-	=39-	=39-	=39-	=39-	=39-
1D	-o	1d	-o	1f	-o
1D	lu-	1d	lu-	1f	lu-
=40-	=40-	=40-	=40-	=40-	=40-
*	*	*2\right	*	*	*
2AA/	-me(n)	2e\	-me(n)	2e/	-me(n)
2AA/	de	2e\	de	1d	de
2AA/	lu-	1e	lu-	.	.
2AA/	mi-	.	.	2c/	lu-
=41-	=41-	=41-	=41-	=41-	=41-
0D,>	-ne	1d	-mi-	1d	-mi-
.	.	1d,>	-ne	1d,>	-ne
=42-	=42-	=42-	=42-	=42-	=42-
1GG	de-	1d	de-	1B	de-
1AA,>	-um	1c	-u(m)	1c	-u(m)
!LO:SIC:v:t=custos E	!	!	!	!	!
!LO:LB:g=original	!	!	!	!	!
=43-	=43-	=43-	=43-	=43-	=43-
1E	ve-	1B	ve-	1e	ve-
1F	-ru(m)	1A	-ru(m)	1c	-ru(m)
!	!	!LO:SIC:v:t=custos A	!	!	!
!	!	!LO:LB:g=original	!	!	!
=44-	=44-	=44-	=44-	=44-	=44-
*lig	*	*lig	*	*	*
1F	de	1A	de	1c	de
1D	.	1F	.	1d	.
*Xlig	*	*Xlig	*	*	*
=45-	=45-	=45-	=45-	=45-	=45-
0C	de-	0E,>	.	0c	.
=46-	=46-	=46-	=46-	=46-	=46-
0AA	-o	0A	de-	0e	.
=47-	=47-	=47-	=47-	=47-	=47-
0D	.	0F	-o	1A	.
.	.	.	.	2A/	de-
.	.	.	.	2B/	.
!	!	!	!	!LO:SIC:v:t=custos c	!
!	!	!	!	!LO:LB:g=original	!
=48-	=48-	=48-	=48-	=48-	=48-
0AA	ve-	0E	ve-	2c/	-o
.	.	.	.	1d	ve-
!	!	!	!	!LO:SIC:v:s:t=2c#/	!
.	.	.	.	2c/	-ro
=49-	=49-	=49-	=49-	=49-	=49-
*lig	*	*	*	*	*
1A	-ro	0D	-ro	0d	ge-
1F,>	.	.	.	.	.
*Xlig	*	*	*	*	*
=50-	=50-	=50-	=50-	=50-	=50-
!	!	!	!	!LO:TX:a:t=P:problem:dwie pionowe kreski na nutą	!
1G	ge-	1E	ge-	0c	-ni-
1G	-ni-	1E	-ni-	.	.
=51-	=51-	=51-	=51-	=51-	=51-
!	!	!	!	!LO:TX:a:t=P:problem:dwie pionowe kreski na nutą	!
1C,>	-tu(m)	1G	-tu(m)	0e	-tu(m)
1C	no(n)	1G	no(n)	.	.
=52-	=52-	=52-	=52-	=52-	=52-
!	!	!	!	!LO:TX:a:t=P:problem:dwie pionowe kreski na nutą	!
0D	fac-	0F	.	0d	no(n)
=53-	=53-	=53-	=53-	=53-	=53-
*lig	*	*	*	*lig	*
1D	-tu(m)	1F	fac-	1f	fac-
1BB,>	.	1G,>	-tu(m)	1d,>	-tu(m)
*Xlig	*	*	*	*Xlig	*
!LO:SIC:v:t=custos AA	!	!	!	!	!
!LO:LB:g=original	!	!	!	!	!
=54-	=54-	=54-	=54-	=54-	=54-
2AA/	con-	2A/	con-	2c/	con-
2AA/	-ſub-	2A/	-ſub-	2c/	-ſub-
2D/	-stan-	2F/	-stan-	2A/	-stan-
2D/	-ti-	2F/	-ti-	2B/	-ti-
!	!	!LO:SIC:v:t=custos E	!	!	!
!	!	!LO:LB:g=original	!	!	!
=55-	=55-	=55-	=55-	=55-	=55-
1C	-a-	1E	-a-	1c	-a-
2C/	-le(m)	1E	-lem	2c,>/	-lem
2D/	.	.	.	1e\	pa-
=56-	=56-	=56-	=56-	=56-	=56-
2E/	pa-	0E	pa-	.	.
2F\	.	.	.	1d	.
1G	tri	.	.	.	.
.	.	.	.	2c/	.
!	!	!	!	!LO:SIC:v:t=custos d	!
!	!	!	!	!LO:LB:g=original	!
=57-	=57-	=57-	=57-	=57-	=57-
1A	.	0D,>	-tri	1d	tri
2A\	.	.	.	2d/	.
2F,>\	.	.	.	2f\	.
=58-	=58-	=58-	=58-	=58-	=58-
!	!	!	!	!LO:TX:a:t=P:problem:dwa kółka nad nutą	!
1G	per-	1E	per-	0e,>	per-
1G	que(m)	1E	que(m)	.	.
=59-	=59-	=59-	=59-	=59-	=59-
!	!	!	!	!LO:TX:a:t=P:problem:dwa kółka nad nutą	!
1C	om-	1G	om-	0c	-que(m)
1C	-ni-	1G	-ni-	.	.
!LO:SIC:v:t=custos D	!	!	!	!	!
!LO:LB:g=original	!	!	!	!	!
=60-	=60-	=60-	=60-	=60-	=60-
0D	-a	0F,>	-a	0A	o(mn)a
=61-	=61-	=61-	=61-	=61-	=61-
!LO:SIC:v:l:s:t=fac-	!	!LO:SIC:v:l:s:t=fac-	!	!	!
0AA	fa-	0A	fa-	0c	fac-
=62-	=62-	=62-	=62-	=62-	=62-
0D	.	0F	.	0d	.
=63-	=63-	=63-	=63-	=63-	=63-
!LO:SIC:v:l:s:t=-ta	!	!	!	!	!
1AA	-cta	1E	.	2c/	.
.	.	.	.	1d	.
!	!	!LO:SIC:v:l:s:t=-ta	!	!	!
1AA	.	1E	-cta	.	.
!	!	!	!	!LO:SIC:v:s:t=2c#/	!
.	.	.	.	2c/	-ta
=64-	=64-	=64-	=64-	=64-	=64-
0D;>	ſunt	0D;>	ſunt	0d;<	su(n)t
!	!	!LO:SIC:v:t=custos d	!	!	!
!	!	!LO:PB:g=original	!	!	!
=65-	=65-	=65-	=65-	=65-	=65-
1D	Qui	1d	Qui	1d	Qui
1AA	prop-	1c	prop-	1e	prop-
=66-	=66-	=66-	=66-	=66-	=66-
1E	-t(er)	1B	-t(er)	1e	-ter
1F	nos	1A,>	nos	2c/	nos
!	!	!	!	!LO:SIC:v:t=custos d	!
!	!	!	!	!LO:LB:g=original	!
.	.	.	.	1d\	.
=67-	=67-	=67-	=67-	=67-	=67-
1F	ho-	1A	ho-	.	.
.	.	.	.	1c	ho-
1D	-mi-	1F	-mi-	.	.
.	.	.	.	2B/	-mi-
=68-	=68-	=68-	=68-	=68-	=68-
0C	-nes	0E,>	-nes	0c,>	-nes
=69-	=69-	=69-	=69-	=69-	=69-
1AA	et	1A	et	1c	et
!LO:SIC:v:t=custos D	!	!	!	!	!
!LO:LB:g=original	!	!	!	!	!
2D/	prop-	2F/	prop-	1d	prop-
1D\	-t(er)	2F/	-t(er)	.	.
=70-	=70-	=70-	=70-	=70-	=70-
.	.	1E	n(os-	2B,>/	-ter
2C/	noſ-	.	.	2c/	n(os-
1D	-tra(m)	1D	-t)ram	2A/	.
.	.	.	.	2d/	-t)ram
=71-	=71-	=71-	=71-	=71-	=71-
1A	ſa-	1F	ſa-	2c/	sa-
.	.	.	.	1f	.
1G	-lu-	1G	-lu-	.	.
.	.	.	.	2e\	-lu-
=72-	=72-	=72-	=72-	=72-	=72-
0F	-tem	0A	-tem	0f,>	-tem
!	!	!LO:SIC:v:t=custos B	!	!	!
!	!	!LO:LB:g=original	!	!	!
=73-	=73-	=73-	=73-	=73-	=73-
1G	de-	1B	de-	1d	de-
1E	-ſcen-	1c	-ſcen-	1e	-ſcen-
=74-	=74-	=74-	=74-	=74-	=74-
1D	-dit	1d	-dit	1f,>	-dit
!	!	!	!	!LO:SIC:v:t=custos d	!
!	!	!	!	!LO:LB:g=original	!
1D	de	1d	de	1d	de
=75-	=75-	=75-	=75-	=75-	=75-
0A	ce-	0e	ce-	2c/	.
.	.	.	.	2d/	.
.	.	.	.	1e	ce-
=76-	=76-	=76-	=76-	=76-	=76-
0D;<	-lis	0d;<	-lis	0f;<	-lis
!LO:SIC:v:t=custos D	!	!	!	!	!
!LO:PB:g=original	!	!	!	!	!
=77-	=77-	=77-	=77-	=77-	=77-
1D	Et	1d	Et	1d	Et
2AA/	in-	2c\	in-	2e\	in-
2AA/	-car-	2c\	-car-	2e\	-car-
=78-	=78-	=78-	=78-	=78-	=78-
1E	-na-	1B	-na-	1e	-na-
1F,>	-tus	1A,>	-tus	1c,>	-tus
=79-	=79-	=79-	=79-	=79-	=79-
2D/	eſt	2A/	eſt	2d/	eſt
2D/	de	2A/	de	2d/	de
1D	ſpi-	1F	ſp(i-	1d	spi-
=80-	=80-	=80-	=80-	=80-	=80-
1C	-ri-	1E	-ri-	1e	-ri-
1C,>	-tu[m]	1E	-tum)	1e	-tu[m]
!	!	!LO:SIC:v:t=custos A	!	!LO:SIC:v:t=custos e	!
!	!	!LO:LB:g=original	!	!LO:PB:g=original	!
=81-	=81-	=81-	=81-	=81-	=81-
0AA	San-	0A	ſan-	0e	San-
=82-	=82-	=82-	=82-	=82-	=82-
*	*	*	*	*lig	*
0A	.	0F	.	1f	.
.	.	.	.	1d	.
*	*	*	*	*Xlig	*
=83-	=83-	=83-	=83-	=83-	=83-
0G	.	0E	.	2c/	.
.	.	.	.	1d	.
!	!	!	!	!LO:SIC:v:s:t=2c#/	!
.	.	.	.	2c/	.
=84-	=84-	=84-	=84-	=84-	=84-
0A,>	-cto	0D,>	-cto	0d,>	-cto
!LO:SIC:v:t=custos F	!	!	!	!	!
!LO:LB:g=original	!	!	!	!	!
=85-	=85-	=85-	=85-	=85-	=85-
0F	ex	0A	Ex	0f	ex
=86-	=86-	=86-	=86-	=86-	=86-
0E	ma	1B	.	0g	.
.	.	1c	.	.	.
=87-	=87-	=87-	=87-	=87-	=87-
1D,>	.	1d,>	.	1f,>	.
1D	Ma-	1d	Ma-	1f	Ma-
=88-	=88-	=88-	=88-	=88-	=88-
0C	-ri-	0e	-ri-	0g	-ri-
=89-	=89-	=89-	=89-	=89-	=89-
*lig	*	*lig	*	*lig	*
1G	-a	1d	-a	1g	-a
1F,>	.	1f,>	.	1a,>	.
*Xlig	*	*Xlig	*	*Xlig	*
=90-	=90-	=90-	=90-	=90-	=90-
1A	vir-	1e	vir-	1a	Vir-
1A	-gi-	1c	-gi-	1a	-gi-
=91-	=91-	=91-	=91-	=91-	=91-
0D,>	-ne	0d	-ne	0f,>	-ne
!	!	!	!	!LO:SIC:v:t=custos f	!
!	!	!	!	!LO:LB:g=original	!
=92-	=92-	=92-	=92-	=92-	=92-
*lig	*	*lig	*	*lig	*
1D	et	1d	et	1f	et
1AA	.	1c	.	1e,>	.
*Xlig	*	*Xlig	*	*Xlig	*
!	!	!LO:SIC:v:t=custos B	!	!	!
!	!	!LO:LB:g=original	!	!	!
=93-	=93-	=93-	=93-	=93-	=93-
1E	ho-	1B	ho-	1e	ho-
1F,>	-mo	1A,>	-mo	1c,>	-mo
!LO:SIC:v:t=custos F	!	!	!	!	!
!LO:LB:g=original	!	!	!	!	!
=94-	=94-	=94-	=94-	=94-	=94-
*lig	*	*lig	*	*lig	*
!LO:SIC:v:l:s:t=fac-	!	!LO:SIC:v:l:s:t=fac-	!	!LO:SIC:v:l:s:t=fac-	!
1F	fa-	1A	fa-	1c	fa-
1D	.	1F	.	1d	.
*Xlig	*	*Xlig	*	*Xlig	*
=95-	=95-	=95-	=95-	=95-	=95-
!	!	!LO:SIC:v:l:s:t=-tus	!	!	!
0C	.	0E	-ctus	0e	.
=96-	=96-	=96-	=96-	=96-	=96-
0D	.	0A	.	0f	.
=97-	=97-	=97-	=97-	=97-	=97-
0D	.	0F	.	0d	.
=98-	=98-	=98-	=98-	=98-	=98-
!LO:SIC:v:l:s:t=-tus	!	!	!	!LO:SIC:v:l:s:t=-tus	!
0AA	-ctus	1E	eſt	0c	-ctus
.	.	1E	.	.	.
=99-	=99-	=99-	=99-	=99-	=99-
0BB,>	[eſt]	0D,>	.	0d,>	eſt
=100-	=100-	=100-	=100-	=100-	=100-
0AA	cru-	0E	cru-	0c	cru-
=101-	=101-	=101-	=101-	=101-	=101-
1GG	-ci-	1G	-ci-	1B	-ci-
1GG	-fi-	1G	-fi-	1B	-fi-
=102-	=102-	=102-	=102-	=102-	=102-
0BB,>	-xus	0F,>	-xus	0d	-xus
=103-	=103-	=103-	=103-	=103-	=103-
0AA	e-	0A	e-	0c	e-
=104-	=104-	=104-	=104-	=104-	=104-
0D	.	0F	.	0d	.
!	!	!LO:SIC:v:t=custos E	!	!LO:SIC:v:t=custos c	!
!	!	!LO:LB:g=original	!	!LO:LB:g=original	!
=105-	=105-	=105-	=105-	=105-	=105-
2AA/	-ci-	2E/	-ci-	2c/	-ci-
2AA/	-a(m)	2E/	-a(m)	2A,>/	-am
1AA	pro-	1E	pro	1c	pro
!LO:SIC:v:t=custos A	!	!	!	!	!
!LO:LB:g=original	!	!	!	!	!
=106-	=106-	=106-	=106-	=106-	=106-
1A	-no-	1D	no-	1d	no-
1F,>	-bis	1D,>	-bis	1d,>	-bis
=107-	=107-	=107-	=107-	=107-	=107-
0G	ſub-	0E	ſub-	0c	Sub-
=108-	=108-	=108-	=108-	=108-	=108-
1C	pon-	1G	pon-	1c	pon-
1C	-ti-	1G	-ti-	1c	-ci-
=109-	=109-	=109-	=109-	=109-	=109-
0D,>	-o	0F,>	-o	0A,>	-o
=110-	=110-	=110-	=110-	=110-	=110-
1D	pi-	1F	Pi-	1d	pi-
1BB	-la-	1G	-la-	1d	-la-
=111-	=111-	=111-	=111-	=111-	=111-
0AA,>	-to	0A,>	-to	0c	-to
=112-	=112-	=112-	=112-	=112-	=112-
2AA/	paſ-	2A/	paſ-	2c/	paſ-
2AA/	-us	2A/	-us	2c/	-ſus
2D/	et	2F/	et	2d/	et
2D/	ſe-	2F/	ſe-	2d/	se-
!	!	!LO:SIC:v:t=custos E	!	!LO:SIC:v:t=custos e	!
!	!	!LO:PB:g=original	!	!LO:LB:g=original	!
=113-	=113-	=113-	=113-	=113-	=113-
2C/	-pul-	1E	-pul-	2e/	-pul-
2BB/	.	.	.	1d	.
1AA	tus	1E	tus	.	.
!	!	!	!	!LO:SIC:v:s:t=2c#/	!
.	.	.	.	2c/	-tus
=114-	=114-	=114-	=114-	=114-	=114-
1D;>	eſt	0D;>	e(ſt)	0d;<	eſt
1ryy	.	.	.	.	.
!LO:SIC:v:t=custos D	!	!	!	!	!
!LO:LB:g=original	!	!	!	!	!
=115-	=115-	=115-	=115-	=115-	=115-
1D	Et	1d	Et	1f	Et
2F\	re-	2c/	re-	2f\	re-
2C/	-ſur-	2c/	-ſu[r]-	2e\	-ſur-
=116-	=116-	=116-	=116-	=116-	=116-
2D/	-re-	1B	-re-	2d/	-re-
2E/	.	.	.	2g\	-xit
2F/	.	1A,>	xit	2c/	ter-
1D\	xit	.	.	2d/	-cia
=117-	=117-	=117-	=117-	=117-	=117-
.	.	1A	ter-	1e	.
2C/	ter-	.	.	.	.
1D	-tia	2F/	-cia	2f\	.
.	.	2F/	.	1d\	.
=118-	=118-	=118-	=118-	=118-	=118-
1AA	di-	1E	di-	.	.
.	.	.	.	2c/	di-
1A,>	-e	1D	-e	1d	-e
!	!	!LO:SIC:v:t=custos F	!	!LO:SIC:v:t=custos c	!
!	!	!LO:LB:g=original	!	!LO:LB:g=original	!
=119-	=119-	=119-	=119-	=119-	=119-
1A	ſe-	1F	ſe-	2c/	se
.	.	.	.	1f	.
1G	cun-	1G	cun-	.	.
.	.	.	.	2e/	cun-
=120-	=120-	=120-	=120-	=120-	=120-
0F,>	-du(ſ)	0A,>	-du(ſ)	0f,>	-duſ
=121-	=121-	=121-	=121-	=121-	=121-
1G	ſcri-	1B	ſcri-	1d	scri-
!LO:SIC:v:t=custos E	!	!	!	!	!
!LO:LB:g=original	!	!	!	!	!
1E	-ptu-	1c	-ptu-	1e	-ptu-
=122-	=122-	=122-	=122-	=122-	=122-
0D,>	-ras	0d,>	-ra(s)	0f,>	-ras
=123-	=123-	=123-	=123-	=123-	=123-
!	!	!LO:SIC:v:l:s:t=ed	!	!	!
0F	et	0A	ſed	0f	et
=124-	=124-	=124-	=124-	=124-	=124-
1E	aſ-	1B	aſ-	1g	aſ-
1E	-cen-	1c	-cen-	1g	-cen-
=125-	=125-	=125-	=125-	=125-	=125-
1D	-dit	1d,>	-dit	1f,>	-dit
1D	in	1d	in	1f	in
=126-	=126-	=126-	=126-	=126-	=126-
0C	cae-	0e	ce-	0g	ce-
=127-	=127-	=127-	=127-	=127-	=127-
0D,>	-lum	0d,>	-lu(m)	0f,>	-lu(m)
=128-	=128-	=128-	=128-	=128-	=128-
1D	ſe-	1d	ſe-	1f	ſe-
1A	-det	1c	-det	2e/	-det
.	.	.	.	2f\,>	.
!	!	!LO:SIC:v:t=custos B	!	!LO:SIC:v:t=custos g	!
!	!	!LO:LB:g=original	!	!LO:PB:g=original	!
=129-	=129-	=129-	=129-	=129-	=129-
1G	ad	1B	a	1g	ad
1C	dex-	1c	dex-	1e	dex-
=130-	=130-	=130-	=130-	=130-	=130-
1D	-ter-	1A	-ter-	1f	-ter-
1E	-am	1G,>	-a(m)	1g,>	-am
!LO:SIC:v:t=custos AA	!	!	!	!	!
!LO:LB:g=original	!	!	!	!	!
=131-	=131-	=131-	=131-	=131-	=131-
1AA	p(a)-	1A	p(a)-	1e	Pa-
1D,>	-(t)ris	1F,>	-(t)ris	1f	-tris
=132-	=132-	=132-	=132-	=132-	=132-
1GG	et	1G	et	1d	et
1AA	i-	1E	i-	1c	i-
=133-	=133-	=133-	=133-	=133-	=133-
1FF	-te-	1F	-te-	1c	-te-
1GG,>	-rum	1D,>	-ru(m)	1B	-ru[m]
=134-	=134-	=134-	=134-	=134-	=134-
0FF	ven-	0F	ven-	0c	ven-
=135-	=135-	=135-	=135-	=135-	=135-
0F	.	0A	.	0c	.
=136-	=136-	=136-	=136-	=136-	=136-
0D	.	0F	tu-	0d	.
=137-	=137-	=137-	=137-	=137-	=137-
1G	-tu-	1E	.	1e	-tu
!	!	!	!	!LO:SIC:v:t=custos e	!
!	!	!	!	!LO:LB:g=original	!
1G	-rus	1E	-rus	1e	rus
!	!	!LO:SIC:v:t=custos D	!	!	!
!	!	!LO:LB:g=original	!	!	!
=138-	=138-	=138-	=138-	=138-	=138-
0A,>	eſt	0D,>	eſt	0f,>	eſt
=139-	=139-	=139-	=139-	=139-	=139-
0G	cu(m)	0E	cu(m)	0e	cu(m)
=140-	=140-	=140-	=140-	=140-	=140-
1C	glo-	1G	glo-	1e	glo-
1C	-ri-	1G	-ri-	1e	-ri-
=141-	=141-	=141-	=141-	=141-	=141-
0D	-a	0F,>	-a	0d,>	-a
!LO:SIC:v:t=custos D	!	!	!	!	!
!LO:LB:g=original	!	!	!	!	!
=142-	=142-	=142-	=142-	=142-	=142-
0D	iu-	0A	iu-	0f	iu-
=143-	=143-	=143-	=143-	=143-	=143-
0D	di-	0F	.	0d	.
=144-	=144-	=144-	=144-	=144-	=144-
1AA	-ca-	1E	di-	2e\	.
.	.	.	.	1d	-di-
1AA	-re	1E	-ca-	.	.
!	!	!	!	!LO:SIC:v:s:t=2c#/	!
.	.	.	.	2c/	-ca-
=145-	=145-	=145-	=145-	=145-	=145-
0D	vi-	0D,>	-re	0d,>	-re
=146-	=146-	=146-	=146-	=146-	=146-
0C	.	0E	vi-	0c	vi-
=147-	=147-	=147-	=147-	=147-	=147-
0GG,>	-vos	0G,>	-vos	0d	-vos
!	!	!	!	!LO:SIC:v:t=custos d	!
!	!	!	!	!LO:LB:g=original	!
=148-	=148-	=148-	=148-	=148-	=148-
*lig	*	*	*	*	*
1D	et	0F	et	0d	et
1BB	.	.	.	.	.
*Xlig	*	*	*	*	*
=149-	=149-	=149-	=149-	=149-	=149-
0AA,<	.	0A	.	0c	.
=150-	=150-	=150-	=150-	=150-	=150-
1D	.	0F,>	.	0d,>	.
1D	.	.	.	.	.
!	!	!LO:SIC:v:t=custos E	!	!	!
!	!	!LO:LB:g=original	!	!	!
=151-	=151-	=151-	=151-	=151-	=151-
0AA	mor-	1E	mor-	1e	mor-
.	.	1E	-tu-	1e	-tu-
=152-	=152-	=152-	=152-	=152-	=152-
1A,<	-tu-	0D,>	-os	0f,>	-os
2A\	.	.	.	.	.
2F\	-os	.	.	.	.
=153-	=153-	=153-	=153-	=153-	=153-
2G\	cu-	1E	cu-	1e	cu-
2F\	.	.	.	.	.
!LO:SIC:v:t=custos E	!	!	!	!	!
!LO:LB:g=original	!	!	!	!	!
2E/	-ius	1E	-ius	2c/	-ius
2D/	.	.	.	2d/	.
=154-	=154-	=154-	=154-	=154-	=154-
2C/	re-	1G	re-	2e\	.
2BB,</	.	.	.	1f	.
1C	-gni	1G	-gni	.	.
.	.	.	.	2e\	re-
=155-	=155-	=155-	=155-	=155-	=155-
0D,>	.	0F	-no(n)	0f	-gni
=156-	=156-	=156-	=156-	=156-	=156-
0AA	no(n)	0A	.	0e	non
=157-	=157-	=157-	=157-	=157-	=157-
0D	e-	0F	.	1d	.
!	!	!	!	!LO:SIC:v:t=custos c	!
!	!	!	!	!LO:LB:g=original	!
.	.	.	.	2c/	e-
.	.	.	.	2d/	.
=158-	=158-	=158-	=158-	=158-	=158-
2AA/	-rit	2E/	e-	2e\	.
2AA/	.	2E/	-rit	1d	-rit
1AA	fi-	1E	fi-	.	.
!	!	!	!	!LO:SIC:v:s:t=2c#/	!
.	.	.	.	2c/	fi-
=159-	=159-	=159-	=159-	=159-	=159-
0D;<	-nis.	0D;>	-nis	0d;<	-nis
=160-	=160-	=160-	=160-	=160-	=160-
!	!	!LO:SIC:v:t=custos d	!	!	!
!	!	!LO:PB:g=original	!	!	!
1D	Et	1d	Et	1d	Et
1AA	in	1c	in	1e	in
=161-	=161-	=161-	=161-	=161-	=161-
2E/	ſpi-	2B/	ſp(i-	2e\	spi-
2E/	-ri-	2B/	-ri-	2e\	-ri-
!LO:SIC:v:t=custos F	!	!	!	!	!
!LO:LB:g=original	!	!	!	!	!
1F,>	-tu(m)	1A	-tu)m	1c,>	-tum
=162-	=162-	=162-	=162-	=162-	=162-
2F/	ſanc-	2A/	ſ(an)c-	2c/	sanc-
2F/	-tu(m)	2A/	-t(u)m	2c/	-tu(m)
!	!	!	!	!LO:SIC:v:t=custos d	!
!	!	!	!	!LO:LB:g=original	!
1D	do-	1F	do-	1d	do-
=163-	=163-	=163-	=163-	=163-	=163-
1C	-mi-	1E	-mi-	1e	-mi-
1C,>	-nu(m)	1E,>	-nu(m)	1e,>	-nu(m)
=164-	=164-	=164-	=164-	=164-	=164-
1AA	et	1A	et	1e	et
2AA/	vi-	1F	vi-	2e\	vi-
1A\	vi-	.	.	1d\	-vi-
=165-	=165-	=165-	=165-	=165-	=165-
.	.	1E	-vi-	.	.
2G\	.	.	.	2c/	.
1A	-fi-	1D	-fi-	1d	.
=166-	=166-	=166-	=166-	=166-	=166-
1F	-can-	1F	-can-	2c/	-fi-
.	.	.	.	2d/	.
1E	.	1G	.	1e	-can-
!	!	!LO:SIC:v:t=custos A	!	!	!
!	!	!LO:LB:g=original	!	!	!
=167-	=167-	=167-	=167-	=167-	=167-
0C,>	-tem	0A,>	-tem	0f,>	-tem
=168-	=168-	=168-	=168-	=168-	=168-
1G	qui	1B	q(ui)	1d	qui
1D	ex	1d	ex	1f	ex
!LO:SIC:v:t=custos F	!	!	!	!LO:SIC:v:t=custos f	!
!LO:PB:g=original	!	!	!	!LO:PB:g=original	!
=169-	=169-	=169-	=169-	=169-	=169-
1F	pa-	1c	p(a-	1f	Pa-
2F/	-tre	2A/,>	-t)re	2c/	-tre
2F/	fi-	2A/	fi-	2d/	fi-
=170-	=170-	=170-	=170-	=170-	=170-
1E	-li-	1B	-li-	1e	-li-
1E	-o-	1c	o-	1e	-o-
=171-	=171-	=171-	=171-	=171-	=171-
1D,>	-q(ue)	1d	-q(ue)	1f	-que
1D	pro-	1d	pro-	1f	pro-
=172-	=172-	=172-	=172-	=172-	=172-
0C	-ce-	0e	-ce-	0g	-ce-
=173-	=173-	=173-	=173-	=173-	=173-
0D,>	-dit	0d,>	-dit	0f,>	-dit
=174-	=174-	=174-	=174-	=174-	=174-
1D	qui	1d	qui	1f,>	qui
1A	cu(m)	1c	cu(m)	1e	cum
=175-	=175-	=175-	=175-	=175-	=175-
1E	pa-	1B	pa-	1e	pa-
!	!	!LO:SIC:v:t=custos A	!	!	!
!	!	!LO:LB:g=original	!	!	!
1F,>	-tre	1A	-tre	1c,>	-tre
=176-	=176-	=176-	=176-	=176-	=176-
1D,	et	1A	et	2d/	et
!	!	!	!	!LO:SIC:v:t=custos c	!
!	!	!	!	!LO:LB:g=original	!
.	.	.	.	1c	fi-
1D	fi-	1F	fi-	.	.
.	.	.	.	2B/	-li-
!LO:SIC:v:t=custos C	!	!	!	!	!
!LO:LB:g=original	!	!	!	!	!
=177-	=177-	=177-	=177-	=177-	=177-
1C	-li-	1E	-li-	0c,>	-o
1C,>	-o	1E,>	-o	.	.
=178-	=178-	=178-	=178-	=178-	=178-
2AA/	ſi-	2A/	ſi-	2e\	si-
2AA/	-mul	2A/	-mul	2e\	-mul
2D/	a-	2F/	a-	2d/	a-
2D/	-do-	2F/	-do-	2d/	-do-
=179-	=179-	=179-	=179-	=179-	=179-
2E/	-ra-	0E	-ra-	0c	-ra-
2F\	.	.	.	.	.
2G\	.	.	.	.	.
2E\	.	.	.	.	.
=180-	=180-	=180-	=180-	=180-	=180-
0F,>	-tur	0D,>	-tur	0d,>	-tur
=181-	=181-	=181-	=181-	=181-	=181-
0F	et	0A	et	0f	et
=182-	=182-	=182-	=182-	=182-	=182-
1G	con-	1B	con-	1d	con-
1E	-glo-	1c	-glo-	1e	-glo-
!LO:SIC:v:t=custos D	!	!	!	!	!
!LO:LB:g=original	!	!	!	!	!
=183-	=183-	=183-	=183-	=183-	=183-
1D	-ri-	1d	-ri-	1f	.
!	!	!LO:SIC:v:t=custos d	!	!	!
!	!	!LO:LB:g=original	!	!	!
1D	fi-	1d	fi-	1f	-ri-
=184-	=184-	=184-	=184-	=184-	=184-
0A	-ca-	0e	-ca-	2e\	.
.	.	.	.	1d	-fi-
!	!	!	!	!LO:SIC:v:t=custos c	!
!	!	!	!	!LO:LB:g=original	!
!	!	!	!	!LO:SIC:v:s:t=2c#/	!
.	.	.	.	2c/	-ca-
=185-	=185-	=185-	=185-	=185-	=185-
0D,>	-tur	0d,>	-tur	0d,>	-tur
=186-	=186-	=186-	=186-	=186-	=186-
1D	qui	1d	qui	1f	qui
1AA	lo-	1c	lo-	1e	lo-
=187-	=187-	=187-	=187-	=187-	=187-
1E	-cu-	1B	-cu-	1e	-cu-
1F,>	-tus	1A,>	-tus	1c,>	-tus
=188-	=188-	=188-	=188-	=188-	=188-
*	*	*lig	*	*	*
0D	eſt	1A	eſt	0d	eſt
.	.	1F	.	.	.
*	*	*Xlig	*	*	*
=189-	=189-	=189-	=189-	=189-	=189-
0C,<	.	0E,>	.	0e,>	.
=190-	=190-	=190-	=190-	=190-	=190-
0AA	.	0A	per	0e	per
=191-	=191-	=191-	=191-	=191-	=191-
0A	per	0F	pro-	1f	p[ro-]
.	.	.	.	1d	-phe-
=192-	=192-	=192-	=192-	=192-	=192-
1G	-pro-	1E	-phe-	2c/	.
.	.	.	.	1d	.
!LO:SIC:v:t=custos GG	!	!	!	!	!
!LO:LB:g=original	!	!	!	!	!
1G	-phe-	1E	.	.	.
!	!	!	!	!LO:SIC:v:s:t=2c#/	!
.	.	.	.	2c/	.
=193-	=193-	=193-	=193-	=193-	=193-
0F,>	-tas	0D	-tas	0d	-tas
!	!	!LO:SIC:v:t=custos E	!	!LO:SIC:v:t=custos B	!
!	!	!LO:LB:g=original	!	!LO:LB:g=original	!
=194-	=194-	=194-	=194-	=194-	=194-
1G	Et	1E	Et	1B	et
1G	u-	1E	u-	1B	u-
=195-	=195-	=195-	=195-	=195-	=195-
1C	-na(m)	1G,>	-na(m)	1e	-nam
!LO:SIC:v:l:s:t=ſanc-	!	!	!	!	!
1C	ſan-	1G	ſanc-	1e	s(an)c-
=196-	=196-	=196-	=196-	=196-	=196-
!LO:SIC:v:l:s:t=-tam	!	!	!	!	!
0D,>	-ctam	0F,>	-ta(m)	0d,>	-t(am)
=197-	=197-	=197-	=197-	=197-	=197-
0AA	Ca-	0A	Ca-	2c/	Ka-
.	.	.	.	1d	-tho-
!	!	!	!	!LO:SIC:v:s:t=2c#/	!
.	.	.	.	2c/	-li-
=198-	=198-	=198-	=198-	=198-	=198-
0D	.	0F	-tho-	0d	-ca(m)
=199-	=199-	=199-	=199-	=199-	=199-
2C/	.	1E	-li	0e	.
1D	-tho-	.	.	.	.
.	.	1E	.	.	.
2C/	-li-	.	.	.	.
=200-	=200-	=200-	=200-	=200-	=200-
0D,>	-ca(m)	0D,>	ca(m)	0f,>	.
!LO:SIC:v:t=custos C	!	!	!	!	!
!LO:LB:g=original	!	!	!	!	!
=201-	=201-	=201-	=201-	=201-	=201-
0C	et	1E	et	1e	et
.	.	1E	a-	1e	a-
=202-	=202-	=202-	=202-	=202-	=202-
1E	-apo-	1G	-po-	1e	-po-
2E/	-ſto-	2G/	-ſto-	2e\	-sto-
2E/	-li-	2G/	-li-	2e\	-li-
!	!	!LO:SIC:v:t=custos F	!	!LO:SIC:v:t=custos f	!
!	!	!LO:PB:g=original	!	!LO:LB:g=original	!
=203-	=203-	=203-	=203-	=203-	=203-
!LO:TX:t=P:problem:przesunięcie sylab	!	!	!	!	!
0D,>	-ca(m)	0F	-ca(m)	0f,>	-cam
=204-	=204-	=204-	=204-	=204-	=204-
0AA	ec-	0A	Ec-	0e	e-
=205-	=205-	=205-	=205-	=205-	=205-
0D	-cle-	0F	.	1A	.
.	.	.	.	2A/	.
.	.	.	.	2B/	.
=206-	=206-	=206-	=206-	=206-	=206-
0AA	-ſi-	1E	-cle-	2c/	.
.	.	.	.	1d	-cle-
.	.	1E	-ſi-	.	.
!	!	!	!	!LO:SIC:v:s:t=2c#/	!
.	.	.	.	2c/	-si-
=207-	=207-	=207-	=207-	=207-	=207-
0A;<	-am	0D;>	-am	0d;<	-am
=208-	=208-	=208-	=208-	=208-	=208-
1D	Con-	1d	Con-	1f	Con-
1AA	-fi-	1c	-fi-	1e	-fi-
=209-	=209-	=209-	=209-	=209-	=209-
1E	-te-	1B	-te-	1e	-te-
!LO:SIC:v:t=custos F	!	!	!	!	!
!LO:PB:g=original	!	!	!	!	!
1F,>	-or	1A	-or	1c	-or
=210-	=210-	=210-	=210-	=210-	=210-
1F	u-	1A	u-	1c	u-
!	!	!	!	!LO:SIC:v:t=custos d	!
!	!	!	!	!LO:PB:g=original	!
2D/	-nu(m)	2F/	-nu(m)	2d/	-nu(m)
1A\	bap-	2F/	bap-	1d\	bap-
!	!	!LO:SIC:v:t=custos E	!	!	!
!	!	!LO:LB:g=original	!	!	!
=211-	=211-	=211-	=211-	=211-	=211-
.	.	1E	tiſ	.	.
2G\	tiſ	.	.	2c/	-tiſ-
1A,>	-ma	1D	-ma	1d,	-ma
=212-	=212-	=212-	=212-	=212-	=212-
1F	in	1F	in	1d	in
1E	re-	1G	re-	1e	re-
=213-	=213-	=213-	=213-	=213-	=213-
0D	-mis-	0A	-miſ-	0f	-miſ-
=214-	=214-	=214-	=214-	=214-	=214-
1G	-ſi-	1B	-ſi-	1d	-[ſ]i-
1E	-o-	1c	-o-	1e	-o-
=215-	=215-	=215-	=215-	=215-	=215-
1D,>	-ne(m)	1d	-ne(m)	1f,>	-ne(m)
1D	pec-	1d	pec-	1d	pec-
=216-	=216-	=216-	=216-	=216-	=216-
1A	-ca-	1e	-ca-	1c	-ca-
!LO:SIC:v:t=custos A	!	!	!	!	!
!LO:LB:g=original	!	!	!	!	!
1A	to-	1c	to-	1e	to-
=217-	=217-	=217-	=217-	=217-	=217-
0D,>	-rum	0d,>	-ru(m)	0f	-ru(m)
!	!	!	!	!LO:SIC:v:t=custos f	!
!	!	!	!	!LO:LB:g=original	!
=218-	=218-	=218-	=218-	=218-	=218-
1D	et	1d	e[t]	1f	et
1AA	ex-	1c	ex-	1e	ex-
=219-	=219-	=219-	=219-	=219-	=219-
1E	-pec-	1B	-pec-	1e	-spe-
!	!	!LO:SIC:v:t=custos A	!	!	!
!	!	!LO:LB:g=original	!	!	!
1F,>	-to	1A	-to	1c	-cto
=220-	=220-	=220-	=220-	=220-	=220-
2D/	re-	2A/	re-	2d/	re-
2D/	-ſu-	2A/	-ſu-	2d/	-ſu-
2F\	-re-	2F/	-re-	2c/	-re-
2F\	-cti-	2F/	-cti-	2c/	-cti-
=221-	=221-	=221-	=221-	=221-	=221-
1C	-o-	1E	-o-	1c	-o-
1C,>	-ne(m)	1E,>	-ne(m)	1c,>	-ne(m)
=222-	=222-	=222-	=222-	=222-	=222-
*	*	*lig	*	*lig	*
1C	mor-	1G	mor-	1e	mor-
1D	.	1F	.	1d	.
*	*	*Xlig	*	*Xlig	*
!LO:SIC:v:t=custos GG	!	!	!	!	!
!LO:LB:g=original	!	!	!	!	!
=223-	=223-	=223-	=223-	=223-	=223-
0GG	.	0D	.	0d	.
=224-	=224-	=224-	=224-	=224-	=224-
1D	tu-	1F	-tu-	1d	-tu-
1E	-o-	1G	-o-	1c	-o-
=225-	=225-	=225-	=225-	=225-	=225-
0D,>	-ru(m)	0A	-ru(m)	0d	-ru(m)
!	!	!	!	!LO:SIC:v:t=custos d	!
!	!	!	!	!LO:LB:g=original	!
=226-	=226-	=226-	=226-	=226-	=226-
1G	et	1B	et	1d	et
1D	vi-	1d	vi-	1f	vi-
=227-	=227-	=227-	=227-	=227-	=227-
1F	-ta(m)	1c	-ta(m)	1f,>	-ta(m)
!	!	!LO:SIC:v:l:s:t=custos A	!	!	!
!	!	!LO:LB:g=original	!	!	!
1F	fu-	1A	fu-	1c	fu-
=228-	=228-	=228-	=228-	=228-	=228-
2D/	-tu-	2A/	-tu-	2d/	-tu-
2D/	-ri	2A/	-ri	2d/	-ri
1D	ſe-	1F	ſe-	1d	ſe-
=229-	=229-	=229-	=229-	=229-	=229-
1C	-cu-	1E	-cu-	1e	-cu-
1C,>	-li	1E,>	-li	1e	-li
=230-	=230-	=230-	=230-	=230-	=230-
*	*	*lig	*	*lig	*
1C	A-	1G	A-	1e	A-
1D	.	1F	.	1d	.
*	*	*Xlig	*	*Xlig	*
!LO:SIC:v:t=custos GG	!	!	!	!	!
!LO:LB:g=original	!	!	!	!	!
=231-	=231-	=231-	=231-	=231-	=231-
0GG	.	0D	.	0d	.
=232-	=232-	=232-	=232-	=232-	=232-
*	*	*	*	*lig	*
1D	.	1F	.	1d	.
1E	.	1G	.	1c	.
*	*	*	*	*Xlig	*
=233-	=233-	=233-	=233-	=233-	=233-
0D	.	0A	.	0d	.
!	!	!	!	!LO:SIC:v:t=custos d	!
!	!	!	!	!LO:LB:g=original	!
=234-	=234-	=234-	=234-	=234-	=234-
1G	.	1B	.	1d	.
1D	.	1d	.	1f	.
=235-	=235-	=235-	=235-	=235-	=235-
0F	.	1c	.	1f	.
!	!	!LO:SIC:v:t=custos A	!	!	!
!	!	!LO:LB:g=original	!	!	!
.	.	1A	.	1c	.
=236-	=236-	=236-	=236-	=236-	=236-
*	*	*lig	*	*	*
0D	.	1A	.	0d	.
.	.	1F	.	.	.
*	*	*Xlig	*	*	*
=237-	=237-	=237-	=237-	=237-	=237-
0C	.	0E	.	0e	.
=238-	=238-	=238-	=238-	=238-	=238-
0AA	.	0A	.	0e	.
=239-	=239-	=239-	=239-	=239-	=239-
0D	.	0F	.	1f	.
.	.	.	.	1d	.
=240-	=240-	=240-	=240-	=240-	=240-
0AA	.	1E	.	2c/	.
.	.	.	.	1d	.
.	.	1E	.	.	.
!	!	!	!	!LO:SIC:v:s:t=2c#/	!
.	.	.	.	2c/	.
=241-	=241-	=241-	=241-	=241-	=241-
0D;<	-men	0D;>	-men	0d;<	-men
=-	=-	=-	=-	=-	=-
*-	*-	*-	*-	*-	*-
!!!system-decoration: [(g1)]
!!!RDF**kern: > = above
!!!RDF**kern: < = below
!!!AIN: 1 bass 1 soprn 1 tenor
!!!ENC: Marta Opryszak
!!!END: 2022-01-03
!!!EED: Jędrzej Mróz
!!!EST: 2022-01-04
